solar-panel-large.svg

<svg fill="currentColor" viewBox="0 0 24 24"><path d="M3 6h3V3H3zm5-3v3h3V3zm5 0v3h3V3zm5 0v3h3V3zm3 5h-3v3h3zm0 5h-3v3h3zm-5 3v-3h-3v3zm-5 0v-3H8v3zm-5 0v-3H3v3zm-3-5h3V8H3zm10-3v3h3V8zM8 8v3h3V8zM3 1h18a2 2 0 0 1 2 2v13a2 2 0 0 1-2 2h-6v3h3v2h-5v-5h-2v5H6v-2h3v-3H3a2 2 0 0 1-2-2V3a2 2 0 0 1 2-2"/></svg>

<svg  viewBox="0 0 24 24" fill="currentColor"><path  d="M3,6H6V3H3V6M8,3V6H11V3H8M13,3V6H16V3H13M18,3V6H21V3H18M21,8H18V11H21V8M21,13H18V16H21V13M16,16V13H13V16H16M11,16V13H8V16H11M6,16V13H3V16H6M3,11H6V8H3V11M13,8V11H16V8H13M8,8V11H11V8H8M3,1H21A2,2 0 0,1 23,3V16A2,2 0 0,1 21,18H15V21H18V23H13V18H11V23H6V21H9V18H3A2,2 0 0,1 1,16V3A2,2 0 0,1 3,1Z"/></svg>
